X:39
T:O'er the muir among the heather
M:C|
L:1/8
K:G
DEGA GAGD|EGAB ABAE|GABG ABde| dBgB      ABAG:|
Gg2a gagd|ea2b abag|bage degd|(e/f/g) Bg ABAG:|

% @@@@@@@@@@@@@@@@@@@@@@@@@@@@@@@@@@

%% 40. ===============================================================================

% ===================
% ^The Wood of^ Fyvie. ["Fyvie" bold]
% ~~~~~~~~~~~~~~~~~
%
% *FIRST Couple sett and cast off.  Sett again and cast up.  *First Couple cross over
% the 2d, and your Partner half round proper.  Lead down thro' the 3d Couple, and cast
% up. *SETT across and turn.  *Reel at the sides.  Sett to your Partner, and turn.

% @@@@@@@@@@@@@@@@@@@@@@@@@@@@@@@@@@

